theme-base/src/main/assets/themes/mapsforgeV3/base/symbols/db_poi_hotel_hostel.svg

<svg enable-background="new 0 0 48 48" height="48" viewBox="0 0 48 48" width="48" xmlns="http://www.w3.org/2000/svg"><path d="m14 25c3.32 0 6-2.68 6-6s-2.68-6-6-6-6 2.68-6 6 2.68 6 6 6zm24-12h-16v14h-16v-18h-4v30h4v-6h36v6h4v-18c0-4.42-3.58-8-8-8z"/></svg>

<?xml version="1.0" encoding="utf-8"?>
<!-- Generator: Adobe Illustrator 15.0.2, SVG Export Plug-In . SVG Version: 6.00 Build 0)  -->
<!DOCTYPE svg PUBLIC "-//W3C//DTD SVG 1.1//EN" "http://www.w3.org/Graphics/SVG/1.1/DTD/svg11.dtd">
<svg version="1.1" xmlns="http://www.w3.org/2000/svg" xmlns:xlink="http://www.w3.org/1999/xlink" x="0px" y="0px" width="48px"
	 height="48px" viewBox="0 0 48 48" enable-background="new 0 0 48 48" xml:space="preserve">
<g id="Vrstva_3">
	<path d="M14,25c3.32,0,6-2.68,6-6c0-3.32-2.68-6-6-6c-3.32,0-6,2.68-6,6C8,22.32,10.68,25,14,25z M38,13H22v14H6V9H2v30h4v-6h36v6
		h4V21C46,16.58,42.42,13,38,13z"/>
</g>
<g id="Vrstva_2">
</g>
</svg>
